X:571
T: JETZT KOMMT DIE ZEIT
N: E0537
O: Europa, Mitteleuropa, Deutschland, Schlesien, Hainau
R: Liebes - Lied
M: 4/4
L: 1/8
K: G
D2 | G2G2B2AG | F3GA2
D2 | G2G2c2B2 | A4z2
AB | c2e2c2A2 | B2d2B2
GB | A2c2A2F2 | G4z2

